assets/images/nearLogos/noMargin/type_nm.svg

<svg viewBox="0 0 288 71.5" xmlns="http://www.w3.org/2000/svg"><path d="m60.27.5v70a1 1 0 0 1 -1 1h-7.34a10 10 0 0 1 -8.39-4.57l-33-51.08 1.13 25.51v29.14a1 1 0 0 1 -1 1h-9.67a1 1 0 0 1 -1-1v-70a1 1 0 0 1 1-1h7.24a10 10 0 0 1 8.4 4.56l33 51-1-25.4v-29.16a1 1 0 0 1 1-1h9.62a1 1 0 0 1 1.01 1z"/><path d="m158.69 71.5h-10.2a1 1 0 0 1 -.93-1.36l27-69.68a1.5 1.5 0 0 1 1.4-1h12.75a1.5 1.5 0 0 1 1.4 1l27 69.68a1 1 0 0 1 -.94 1.36h-10.23a1 1 0 0 1 -.93-.65l-21.76-57.36a1 1 0 0 0 -1.87 0l-21.76 57.36a1 1 0 0 1 -.93.65z"/><path d="m287.79 69.88-20.24-25.88c11.42-2.16 18.11-9.88 18.11-21.71 0-13.57-8.85-22.83-24.48-22.83h-28.18a1.5 1.5 0 0 0 -1.5 1.5 9.61 9.61 0 0 0 9.61 9.61h18.88c9.47 0 14 4.83 14 11.83s-4.42 11.93-14 11.93h-26.99a1.5 1.5 0 0 0 -1.5 1.5v34.67a1 1 0 0 0 1 1h9.62a1 1 0 0 0 1-1v-25.85h11.11l17.57 22.93a10 10 0 0 0 7.94 3.92h7.26a1 1 0 0 0 .79-1.62z"/><path d="m128.23-.5h-44.67a1.34 1.34 0 0 0 -1.34 1.34 9.78 9.78 0 0 0 9.78 9.77h36.24a1 1 0 0 0 1-1v-9.11a1 1 0 0 0 -1.01-1zm0 60.89h-33.38a1 1 0 0 1 -1-1v-18.06a1 1 0 0 1 1-1h30.81a1 1 0 0 0 1-1v-9.1a1 1 0 0 0 -1-1h-41.94a1.5 1.5 0 0 0 -1.5 1.5v39.27a1.5 1.5 0 0 0 1.5 1.5h44.51a1 1 0 0 0 1-1v-9.11a1 1 0 0 0 -1-1z"/></svg>

<svg id="Layer_1" data-name="Layer 1" xmlns="http://www.w3.org/2000/svg" viewBox="0 0 288 71.5"><path d="M60.27.5v70a1,1,0,0,1-1,1H51.93a10,10,0,0,1-8.39-4.57l-33-51.08,1.13,25.51V70.5a1,1,0,0,1-1,1H1a1,1,0,0,1-1-1V.5a1,1,0,0,1,1-1H8.24a10,10,0,0,1,8.4,4.56l33,51-1-25.4V.5a1,1,0,0,1,1-1h9.62A1,1,0,0,1,60.27.5Z"/><path d="M158.69,71.5h-10.2a1,1,0,0,1-.93-1.36l27-69.68a1.5,1.5,0,0,1,1.4-1h12.75a1.5,1.5,0,0,1,1.4,1l27,69.68a1,1,0,0,1-.94,1.36H205.94a1,1,0,0,1-.93-.65L183.25,13.49a1,1,0,0,0-1.87,0L159.62,70.85A1,1,0,0,1,158.69,71.5Z"/><path d="M287.79,69.88,267.55,44c11.42-2.16,18.11-9.88,18.11-21.71,0-13.57-8.85-22.83-24.48-22.83H233a1.5,1.5,0,0,0-1.5,1.5h0a9.61,9.61,0,0,0,9.61,9.61h18.88c9.47,0,14,4.83,14,11.83s-4.42,11.93-14,11.93H233a1.5,1.5,0,0,0-1.5,1.5V70.5a1,1,0,0,0,1,1h9.62a1,1,0,0,0,1-1V44.65h11.11l17.57,22.93a10,10,0,0,0,7.94,3.92H287A1,1,0,0,0,287.79,69.88Z"/><path d="M128.23-.5H83.56A1.34,1.34,0,0,0,82.22.84h0A9.78,9.78,0,0,0,92,10.61h36.24a1,1,0,0,0,1-1V.5A1,1,0,0,0,128.23-.5Zm0,60.89H94.85a1,1,0,0,1-1-1V41.33a1,1,0,0,1,1-1h30.81a1,1,0,0,0,1-1v-9.1a1,1,0,0,0-1-1H83.72a1.5,1.5,0,0,0-1.5,1.5V70a1.5,1.5,0,0,0,1.5,1.5h44.51a1,1,0,0,0,1-1V61.39A1,1,0,0,0,128.23,60.39Z"/></svg>
